!!!COM: Palestrina, Giovanni Perluigi da
!!!OPR: Missa De Beata Marie Virginis (III)
!!!OMD: Gloria
!!!OTL: Qui tollis
**kern	**kern	**kern	**kern	**kern
*Ibass	*Itenor	*Itenor	*Icalto	*Icant
!Bassus	!Tenor 2	!Tenor 1	!Altus	!Cantus
*clefF4	*clefGv2	*clefGv2	*clefG2	*clefG2
*k[]	*k[]	*k[]	*k[]	*k[]
*G:mix	*G:mix	*G:mix	*G:mix	*G:mix
*M4/2	*M4/2	*M4/2	*M4/2	*M4/2
=69	=69	=69	=69	=69
1G	0r	0r	0r	0r
1F#	.	.	.	.
=70	=70	=70	=70	=70
1G	1d	0r	1r	0r
1E	1c#	.	1g	.
=71	=71	=71	=71	=71
1D	1d	0r	1f#	1r
1G	1B	.	1g	1dd
=72	=72	=72	=72	=72
2A	1A	0r	1e	1cc#
2A	.	.	.	.
2.B	2r	.	1d	1dd
.	2G	.	.	.
4c	.	.	.	.
=73	=73	=73	=73	=73
1d	4G	1g	1r	1b
.	4A	.	.	.
.	4B	.	.	.
.	4c	.	.	.
1D	1d	1f#	2r	1a
.	.	.	2a	.
=74	=74	=74	=74	=74
0r	2G	1g	1.b	1dd
.	2g	.	.	.
.	[1g	1e	.	2ee
.	.	.	2g	2cc
=75	=75	=75	=75	=75
2r	2g]	1d	2.a	4dd
.	.	.	.	4ee
2d	2f	.	.	4ff
.	.	.	4b	4dd
2c	2e	1g	2cc	4ee
.	.	.	.	4ff
2G	2d	.	2b	[2gg
=76	=76	=76	=76	=76
1c	1e	1g	1cc	4gg]
.	.	.	.	4ff
.	.	.	.	2ee
[1d	1a	2.g	2r	2dd
.	.	.	2a	[2ff
.	.	4f	.	.
=77	=77	=77	=77	=77
2d]	1d	2f	2a	4ff]
.	.	.	.	4ee
2G	.	2g	2b-	1dd
1A	2r	1e	1a	.
.	[2a	.	.	2cc#
=78	=78	=78	=78	=78
2D	4a]	1d	1f	1dd
.	4g	.	.	.
1d	1f	.	.	.
.	.	1r	[1a	1r
4c	4e	.	.	.
4B	4d	.	.	.
=79	=79	=79	=79	=79
1.c	1.e	0r	2a]	0r
.	.	.	4g	.
.	.	.	4f	.
.	.	.	2g	.
2A	2f#	.	2a	.
=80	=80	=80	=80	=80
1G	2.g	2r	2d	1r
.	.	1g	1b-	.
.	8f	.	.	.
.	8e	.	.	.
1r	1d	.	.	[1dd
.	.	4f	4a	.
.	.	4e	4g	.
=81	=81	=81	=81	=81
0r	0r	1.f	1.a	2dd]
.	.	.	.	4cc
.	.	.	.	4b
.	.	.	.	[1cc
.	.	4e	4g	.
.	.	4d	4f	.
=82	=82	=82	=82	=82
1r	2r	2c	2e	2cc]
.	1d	2d	2f	2a
1G	.	1B	1g	1g
.	2e	.	.	.
=83	=83	=83	=83	=83
2A	2f	0r	1r	1cc
1c	2e	.	.	.
.	2.d	.	1g	1dd
2B	.	.	.	.
.	4e	.	.	.
=84	=84	=84	=84	=84
0A	2f	1r	1a	2.cc
.	2e	.	.	.
.	.	.	.	4dd
.	1a	1c	[1cc	2ee
.	.	.	.	2ff#
=85	=85	=85	=85	=85
1G	1r	1d	2cc]	1gg
.	.	.	2b	.
2.A	2r	2.c	[1a	2ff
.	2e	.	.	[2ee
4B	.	4d	.	.
=86	=86	=86	=86	=86
2c#	2A	2e	1a]	2ee]
2d	2d	2f	.	1dd
1G	2d	4g	1b	.
.	.	4f	.	.
.	[2g	4e	.	[2ee
.	.	4d	.	.
=87	=87	=87	=87	=87
0A	2g]	2c	0a	2ee]
.	2f	2d	.	1dd
.	1e	2e	.	.
.	.	2A	.	2cc#
=88	=88	=88	=88	=88
[0D	[0d	[0A	[0f#	[0dd
=89	=89	=89	=89	=89
0D]	0d]	0A]	0f#]	0dd]
*-	*-	*-	*-	*-
!!!CDT: 1525/^1526/-1594/2/2
!!!OCY: Italia
!!!AGN: Mass (Paraphrase)
!!!AST: renaissance, vocal
!!!ASW: Gregorian Mass
!!!PWK: Masses, Book Mantuan I
!!!RNB: Cadence finals: D
!!!YOR: Le Opere Complete, v. 18, p. 162
!!!YOO: Rome, Italy: Fratelli Scalera
!!!END: 1992//
!!!EED: John Miller
!!!YEC: Copyright 2000, John Miller
!!!YEN: United States of America
!!!YEM: Rights to all derivative electronic formats reserved.
!!!YEM: Refer to licensing agreement for further details.
!!!YEM: This file must be accompanied by the licensing agreement.
!!!YEM: A copy of the licensing agreement may be found at http://www.music-cog.ohio-state.edu/HumdrumDatabases/Palestrina/license.txt
!!!EMD: converted to Humdrum by Bret Aarden
